app/public/dtpr-icons/inform.svg

<svg width="36" height="36" viewBox="0 0 36 36" fill="none" xmlns="http://www.w3.org/2000/svg">
<path d="M31.8564 8.8453L19 1.42265C18.3812 1.06538 17.6188 1.06538 17 1.42265L4.14359 8.8453C3.52479 9.20257 3.14359 9.86282 3.14359 10.5774V25.4226C3.14359 26.1372 3.52479 26.7974 4.14359 27.1547L17 34.5774C17.6188 34.9346 18.3812 34.9346 19 34.5774L31.8564 27.1547C32.4752 26.7974 32.8564 26.1372 32.8564 25.4226V10.5774C32.8564 9.86282 32.4752 9.20256 31.8564 8.8453Z" fill="black" stroke="black" stroke-width="2"/>
<path fill-rule="evenodd" clip-rule="evenodd" d="M21 10.5C21 11.881 19.881 13 18.5 13C17.119 13 16 11.881 16 10.5C16 9.119 17.119 8 18.5 8C19.881 8 21 9.119 21 10.5ZM21 26H22C22.552 26 23 26.448 23 27C23 27.552 22.552 28 22 28H15C14.448 28 14 27.552 14 27C14 26.448 14.448 26 15 26H16V16H15C14.448 16 14 15.552 14 15C14 14.448 14.448 14 15 14H17H17.5H20C20.552 14 21 14.448 21 15V26Z" fill="white"/>
</svg>

<svg xmlns="http://www.w3.org/2000/svg" width="36" height="36" fill="none"><path fill="#000" stroke="#000" stroke-width="2" d="M31.856 8.845 19 1.423a2 2 0 0 0-2 0L4.144 8.845a2 2 0 0 0-1 1.732v14.846a2 2 0 0 0 1 1.732L17 34.577a2 2 0 0 0 2 0l12.856-7.422a2 2 0 0 0 1-1.732V10.577a2 2 0 0 0-1-1.732Z"/><path fill="#fff" fill-rule="evenodd" d="M21 10.5a2.5 2.5 0 1 1-5 0 2.5 2.5 0 0 1 5 0M21 26h1a1 1 0 0 1 0 2h-7a1 1 0 0 1 0-2h1V16h-1a1 1 0 0 1 0-2h5a1 1 0 0 1 1 1z" clip-rule="evenodd"/></svg>
